!! 00010] TT[TB
!! Eigene Aufnahme
!!!OTL: Tao hai shan dan    (?) A cubit of sandalwood
!!!ARE: Neimeng
!! Ethnic Group: Menggu
!! MM, S. 1550
!!!SCT: C0580
!!!YEM: Copyright 1995, estate of Helmut Schaffrath.
**kern
*ICvox
*Ivox
*M2/4
*k[]
*C:
{4g
8.cc
16a
=1
8cc
8a
8g
8e}
=2
{8r
8d
8e
8g
=3
4.cc
8g
=4
8cc
16a
16g
8e
8d
=5
2c}
=6
{4g
8g
8e
=7
8d
8e
4g}
=8
{8r
8G
8A
8c
=9
4.e
8g
=10
8d
16d
16c
8A
8d
=11
2G}
==
!!!AGN: NN
!! Saenger: Chao Lun Batou, der das Buch nur zum Nachschlagen
!!    benutzte und ansonsten auswendig sang. Da er aus dem Osten der
!!    Neimeng kommt, kennt er nicht so viele Lieder des Westens.
!!    Alle Lieder wurden mit erkaelteter, halber Stimme in meinem
!!    Zimmer gesungen. FOTO VORHANDEN (DIAS)  31.3.87
!!    +++ Ggf. abgeschnitten oder S. 1551 ist richtig. +++
!!    Cubit = Laengenmass = 1 Unterarm
!!!ONB: ESAC (Essen Associative Code) Database: CHINA
!!!AMT: simple duple
!!!AIN: vox
!!!EED: Helmut Schaffrath
!!!EEV: 1.0
*-
